X:181
T:Hopping Down In Kent
M:4/4
L:1/8
Q:120
K:A % transposed from D
E|AA GA|E E2 E|A<A G A>E|z3 E|
AA GA|E E2 D|CA, CD|E2 ED|
CA, A,2|CD E2|AA BG|A4||
